X:1
T:Schwanengesang
T:In der Ferne
T:Schwanengesang (D.957)
T:6. In der Ferne
T:Franz Schubert
T:Ludwig Rellstab
T:OpenScore (CC0)
T:OpenScore (CC0)
T:OpenScore (CC0)
T:OpenScore (CC0)
T:OpenScore (CC0)
T:OpenScore (CC0)
T:OpenScore (CC0)
C:Franz Schubert
Z:Ludwig Rellstab
Z:OpenScore (CC0)
%%score 1 { ( 2 5 ) | ( 3 4 ) }
L:1/8
Q:1/4=70
M:3/4
K:D
V:1 treble nm="Voice"
V:2 treble nm="Piano"
V:5 treble 
V:3 bass 
V:4 bass 
V:1
"^Ziemlich langsam" z6 | z6 | z6 | z6 | z6 | z6 | !breath!!fermata!z6 | F2 F2 F2 | F3 G F2 | %9
w: |||||||We- he dem|Flie- hen- den|
 F3 F B2 | ^A3 F F2 | !fermata!z6 | E2 F2 G2 | F3 F F2 | E2 F2 G2 | F3 F F2 | B3 B B2 | _B3 B B2 | %18
w: Welt hin- aus|Zie- hen- den!||Frem- de Durch-|mes- sen- den,|Hei- math Ver-|ges- sen- den,|Mut- ter- haus|Has- sen- den,|
 _B3 =c d2 | A3 A A2 | =B2 ^c2 d2 | d3 c c2 | c2 dc BA | A3 d d2 | E2 F2 G2 | F6- | F6- | %27
w: Freun- de Ver-|las- sen- den|fol- get kein|Se- gen, ach,|auf ih- * ren *|We- gen nach,|auf ih- ren|We-||
 F3 D B,2- | !breath!!fermata!B,6 | z6 | z6 | z6 | z6 | z6 | z6 | !breath!!fermata!z6 | F2 F2 F2 | %37
w: * gen nach!|_||||||||Her- ze, das|
 F3{A} G F2 | F2 B2 d2 | c3 ^A F2 | !fermata!z6 | e2 d2 c2 | d3 c B2 | e2 ed dc | d3 c B2 | %45
w: seh- nen- de,|Au- ge, das|thrä- nen- de,||Sehn- sucht, nie|en- den- de,|heim- wärts * sich *|wen- den- de,|
 B2 B2"^cresc." c2 | d3 e d2 |!f! d2 d2 e2 | =f3 d A2 |!p! =B2 ^c2 d2 | e3 d c2 | c2 dc de | %52
w: Bu- sen, der|wal- len- de,|Kla- ge, ver-|hal- len- de,|Abend- * stern,|blin- ken- der,|hoff- nungs- * los *|
 f3 e d2 | c3 B AG | F6- | F6- | F3 D B,2- | !fermata!B,6 | z6 | z6 | z6 | z6 | z6 | z6 | %64
w: sin- ken- der,|hoff- nungs- * los|sin-||* ken- der!|_|||||||
 !fermata!z6 ||[K:B] F2 F2 F2 | F3 G F2 | F2 B2 d2 | c3 A F2 | e2 d2 c2 | d3 c B2 | e2 ed dc | %72
w: |Lüf- te, ihr|säu- seln- den,|Wel- len, sanft|kräu- seln- den,|Son- nen- strahl,|ei- len- der,|nir- gend * ver- *|
 d3 c B2 | B2 B2 c2 | =d3 e d2 | z6 | B2 B2 c2 | =d3 e d2 | z6 | B2 c2 =d2 | e3 =d c2 | c2 =d2 e2 | %82
w: wei- len- der:|die mir mit|Schmer- ze, ach!||dies treu- e|Her- ze brach,||grüsst von dem|Flie- hen- den,|Welt hin- aus|
 f3 e =d2 | c3 B =A=G | F6- | F6- | F3 ^D B,2 | z6 | B2 c2 d2 | e3 d c2 | z6 | B2 c2 d2 | %92
w: Zie- hen- den,|Welt hin- aus *|Zie-||* hen- den!||Lüf- te, ihr|säu- seln- den,||Wel- len, sanft|
{f} e3 d c2 | z6 | B2 d2 f2 | f3 e e2 | e2 d2 c2 | B6- | (B2 c2) A2 | A6 | z6 | c2 d2 e2 | %102
w: kräu- seln- den,||Son- nen- strahl,|ei- len- der,|nir- gend ver-|wei-|* * len-|der:||Die mir mit|
 e3 d d2 | c2 d2 e2 | e3 d d2 | ^B2 c2 f2 | f3 e e2 | e2 d2 c2 | B6- | (B2 c2) A2 | B4 z2 | %111
w: Schmer- ze, ach!|dies treu- e|Her- ze- brach,|grüsst von dem|Flie- hen- den,|Welt hin- aus|Zie-|* * hen-|den,|
!ff! =c2 =de f=g | f6- | f6- | f3 =d B2- | B6 | !fermata!z6 |] %117
w: Welt hin- * aus *|Zie-||* hen- den!|_||
V:2
 [F,F]6- |!>(! [F,F]6!>)! | [G,G]6- |!>(! [G,G]6!>)! |!p! [F,F]6- |!pp! (([F,-B,DF-]6 | %6
 !fermata![F,^A,CF]6)) | [F,B,DF]2 [F,B,DF]2 [F,B,DF]2 |!>(! [F,^A,EF]6!>)! | %9
 [F,B,DF]2 [F,B,DF]2 [F,B,DF]2 |!>(! [F,^A,CF]6!>)! |!>(! [^A,CF^A]3!>)! [A,CF] !fermata![A,CF]2 | %12
[K:bass] [G,EG]2 [F,DF]2 [E,CE]2 |!>(! [F,DF]3!>)! [E,CE] [D,B,D]2 | [G,EG]2 [F,DF]2 [E,CE]2 | %15
!>(! [F,DF]3!>)! [E,CE] [D,B,D]2 |"_cresc." [F,B,DF]2 [F,B,DF]2 [F,B,DF]2 |!>(! [=F,_B,D=F]6!>)! | %18
 [=F,_B,D=F]2 [F,B,DF]2 [F,B,DF]2 |!>(! [=F,A,D=F]6!>)! |!p! [E,=B,DE]2 [E,B,DE]2 [E,B,DE]2 | %21
!<(! [E,_B,^CE]6!<)! |!>(! [E,A,CE]2 [E,A,CE]2!>)! [E,A,CE]2 | ([D,A,D]6 |!pp! (C3) B,A,G,) | %25
 [D,F,]6 | [E,F,^A,]6 | [D,F,B,]6- | !fermata![D,F,B,]6 |[K:treble] [F,F]6- |!p!!>(! [F,F]6!>)! | %31
 [G,G]6- |!p!!>(! [G,G]6!>)! | [F,F]6- |!pp! (([F,-B,DF-]6 | !fermata![F,^A,CF]6)) | %36
!p! [F,B,DF]2 [F,B,DF]2 [F,B,DF]2 |!>(! [F,^A,EF]6!>)! | [F,B,DF]2 [F,B,DF]2 [F,B,DF]2 | %39
!>(! [F,^A,CF]6!>)! |!>(! [CF^Ac]3!>)! [CFA] !fermata![^A,CF]2 |[K:bass] [G,EG]2 [F,DF]2 [E,CE]2 | %42
 [F,DF]3 [E,CE] [D,B,D]2 | [G,EG]2 [F,DF]2 [E,CE]2 | [F,DF]3 [E,CE] [D,B,D]2 | %45
 [F,B,DF]2 [F,B,DF]2!p!"_cresc." [F,B,DF]2 | [=F,_B,D=F]6 |!f! [=F,_B,D=F]2 [F,B,DF]2 [F,B,DF]2 | %48
!>(! [=F,A,D=F]6!>)! |!p! [E,=B,DE]2 [E,B,DE]2 [E,B,DE]2 | [E,_B,^CE]6 | %51
!<(! [E,A,CE]2 [E,A,CE]2 [E,A,CE]2!<)! |!>(! ([D,A,D]6!>)! |!pp! [G,C]6) | [F,B,]6 | [E,F,^A,]6 | %56
 [D,F,B,]6- | !fermata![D,F,B,]6 |[K:treble] [F,F]6- |!p!!>(! [F,F]6!>)! | [G,G]6- | %61
!p!!>(! [G,G]6!>)! | [F,F]6- | (([F,-B,DF-]6 | !fermata![F,^A,CF]6)) || %65
[K:B][K:bass]!pp! (F/D/B,/F,/ F/D/B,/F,/ F/D/B,/F,/ | F/E/A,/F,/ F/E/A,/F,/ F/E/A,/F,/) | %67
 F/D/B,/F,/ F/D/B,/F,/ F/D/B,/F,/ | F/C/A,/F,/ F/C/A,/F,/ F/C/A,/F,/ | %69
!>(! (3GEG,!>)! (3FDF, (3ECE, | (3FDF, (3ECE, (3DB,D, |!>(! (3GEG,!>)! (3FDF, (3ECE, | %72
 (3FDF, (3ECE, (3DB,D, | (3DB,D,!<(! (3DB,D, (3ECE,!<)! |!>(! (3F=DF, (3F!>)!DF, (3FDF, | %75
 (3F=DF, (3FD!>(![=G,E=G]!>)! (3FDF, | (3=DB,=D,!<(! (3DB,D, (3ECE,!<)! | %77
!>(! (3=F=D=F,!>)! (3FDF, (3FDF, | (3=F=D=F, (3FD[=G,E=G] (3FDF, | %79
 E/=D/=B,/E,/ E/D/B,/E,/ E/D/B,/E,/ | E/C/_B,/E,/ E/C/B,/E,/ E/C/B,/E,/ | %81
 E/C/=A,/E,/ E/C/A,/E,/ E/C/A,/E,/ | (3=D=A,=D, (3DA,D, (3DA,D, | (3C=G,E, (3CG,E, (3CG,E, | %84
 (3B,F,=D, (3B,F,D, (3B,F,D, | ^A,/F,/E,/C,/ A,/F,/E,/C,/ A,/F,/E,/C,/ | %86
 B,/F,/^D,/B,,/ B,/F,/D,/B,,/ B,/F,/D,/B,,/ | B,/F,/D,/B,,/ B,/F,/D,/B,,/ B,/F,/D,/B,,/ | %88
 D/B,/F,/D,/ D/B,/F,/D,/ D/B,/F,/D,/ | C/A,/=G,/E,/ C/A,/G,/E,/ C/A,/G,/E,/ | %90
[K:treble]!>(! (e3!>)! d c2) |[K:bass] D/B,/F,/D,/ D/B,/F,/D,/ D/B,/F,/D,/ | %92
 C/A,/=G,/E,/ C/A,/G,/E,/ C/A,/G,/E,/ |[K:treble]!>(! (e3!>)! d c2) | %94
[K:bass] (3DF,"_cresc."D, (3B,F,D, (3^B,G,D, |!<(! (3^B,G,D, (3B,G,D, (3CG,E,!<)! | %96
!f! (3G!>(!EG, (3FDG, (3ECG,!>)! |!mp! (3DB,F, (3DB,F, (3DB,F, |"_dim." (3DB,F, (3ECF, (3CA,F, | %99
!p! (3DA,D, (3DA,D, (3DA,D, | (3DA,D, (3DA,D, (3DA,D, |!<(! (3EA,E, (3DA,D, (3CA,C,!<)! | %102
 (3CA,C, (3CA,C, (3DB,D, | (3EA,E, (3DA,D, (3CA,C, | (3CA,C, (3CA,C, (3DB,D, | %105
"_cresc." (3DG,F, (3CG,E,!<(! (3^B,G,D, | (3^B,G,D, (3B,G,D, (3CG,!<)!E, | %107
!f! (3G!>(!EG, (3FDG, (3ECG,!>)! | (3DB,F, (3DB,F, (3DB,F, |"_dim." (3DB,F, (3ECF, (3FA,F, | %110
!<(! (3=DB,=D, (3DB,D, (3DB,D,!<)! |!ff! (3E!>(!=G,E, (3=DG,E, (3=C!>)!G,E, | %112
 (3B,F,=D, (3B,F,D, (3B,F,D, |"_dim." (3A,F,E, (3A,F,E, (3A,F,E, | %114
 (3B,F,=D, (3B,!<(!F,D, (3B,F,D, | (3B,F,=D, (3B,F,D, (3B,F,!<)!D, |!>(! !fermata![=D,F,B,]6!>)! |] %117
V:3
!>(! z2!p! z2!>)! (^G,,/^A,,/B,,/C,/) | ([B,,D,]2 [^A,,C,]4) | %2
!>(! z2!p! z2!>)! z (3(^A,,/B,,/C,/) | ([B,,D,]2 [^A,,C,]4) |!>(! z2 z2!>)! (^G,,/^A,,/B,,/C,/) | %5
 (([B,,D,]6 | !fermata![F,,^A,,C,]6)) |!p! [B,,,F,,B,,]2 [B,,,F,,B,,]2 [B,,,F,,B,,]2 | %8
 [C,,F,,C,]6 | [B,,,B,,]2 [D,,D,]2 [B,,,B,,]2 | [F,,,F,,]6 | %11
 [F,,C,F,]3 [F,,C,F,] !fermata![F,,C,F,]2 | [F,,,F,,]2 [F,,,F,,]2 [F,,,F,,]2 | %13
 [F,,,F,,]3 [F,,,F,,] [F,,,F,,]2 | [F,,,F,,]2 [F,,,F,,]2 [F,,,F,,]2 | %15
 [F,,,F,,]3 [B,,,B,,] [B,,,B,,]2 | [B,,,B,,]2 [B,,,B,,]2 [B,,,B,,]2 | [_B,,,_B,,]6 | %18
 [_B,,,_B,,]2 [B,,,B,,]2 [B,,,B,,]2 | [A,,,A,,]6 | [^G,,,^G,,]2 [G,,,G,,]2 [G,,,G,,]2 | %21
 [=G,,,=G,,]6 | [G,,,G,,]2 [G,,,G,,]2 [G,,,G,,]2 | [F,,,F,,]6 | [E,,B,,]6 | [F,,B,,]6 | [F,,C,]6 | %27
 [B,,,F,,B,,]6- | !fermata![B,,,F,,B,,]6 | z2!p! z2 (^G,,/^A,,/B,,/C,/) | ([B,,D,]2 [^A,,C,]4) | %31
 z2!p! z2 z (3(^A,,/B,,/C,/) | ([B,,D,]2 [^A,,C,]4) |!p! z2 z2 (^G,,/^A,,/B,,/C,/) | %34
 (([F,,-B,,D,]6 | !fermata![F,,^A,,C,]6)) | [B,,,F,,B,,]2 [B,,,F,,B,,]2 [B,,,F,,B,,]2 | %37
 [C,,F,,C,]6 | [B,,,B,,]2 [D,,D,]2 [B,,,B,,]2 | [F,,,F,,]6 | %40
 [F,,C,F,]3 [F,,C,F,] !fermata![F,,C,F,]2 | [F,,,F,,]2 [F,,,F,,]2 [F,,,F,,]2 | %42
 [F,,,F,,]3 [F,,,F,,] [F,,,F,,]2 | [F,,,F,,]2 [F,,,F,,]2 [F,,,F,,]2 | %44
 [F,,,F,,]3 [B,,,B,,] [B,,,B,,]2 | [B,,,B,,]2 [B,,,B,,]2 [B,,,B,,]2 | [_B,,,_B,,]6 | %47
 [_B,,,_B,,]2 [B,,,B,,]2 [B,,,B,,]2 | [A,,,A,,]6 | [^G,,,^G,,]2 [G,,,G,,]2 [G,,,G,,]2 | %50
 [=G,,,=G,,]6 | [G,,,G,,]2 [G,,,G,,]2 [G,,,G,,]2 | [F,,,F,,]6 | [E,,E,]6 | [F,,D,]6 | [F,,C,]6 | %56
 [B,,,F,,B,,]6- | !fermata![B,,,F,,B,,]6 | z2!p! z2 (^G,,/^A,,/B,,/C,/) | ([B,,D,]2 [^A,,C,]4) | %60
 z2!p! z2 z (3(^A,,/B,,/C,/) | ([B,,D,]2 [^A,,C,]4) |!p! z2 z2 (^G,,/^A,,/B,,/C,/) | %63
!pp! (([F,,-B,,D,]6 | !fermata![F,,^A,,C,]6)) ||[K:B] (3(B,,,F,,B,, (3B,,,F,,B,, (3B,,,F,,B,, | %66
 (3C,,F,,C, (3C,,F,,C, (3C,,F,,C,) | (3B,,,F,,B,, (3B,,,F,,B,, (3B,,,F,,B,, | %68
 (3F,,,C,,F,, (3F,,,C,,F,, (3F,,,C,,F,, | (F,,,F,,F,,,F,,F,,,F,, | F,,,F,,F,,,F,,F,,,F,,) | %71
 (F,,,F,,F,,,F,,F,,,F,, | F,,,F,,F,,,F,,) B,,,B,, | (3B,,,F,,B,, (3B,,,F,,B,, (3B,,,F,,B,, | %74
 (3B,,,F,,B,, (3B,,,F,,B,, (3B,,,F,,B,, | (3B,,,F,,B,, (3B,,,F,,B,, (3B,,,F,,B,, | %76
 (3B,,,F,,B,, (3B,,,F,,B,, (3B,,,F,,B,, | (3=A,,,=F,,=A,, (3A,,,F,,A,, (3A,,,F,,A,, | %78
 (3=A,,,=F,,=A,, (3A,,,F,,A,, (3A,,,F,,A,, | (^G,,,^G,,G,,,G,,G,,,G,,) | %80
 (=G,,,=G,,G,,,G,,G,,,G,,) | =G,,,=G,,G,,,G,,G,,,G,, | F,,,F,,F,,,F,,F,,,F,, | %83
 (E,,=G,,E,,G,,E,,G,,) | F,,,F,,F,,,F,,F,,,F,, | F,,,F,,F,,,F,,F,,,F,, | %86
 (3B,,,F,,B,, (3B,,,F,,B,, (3B,,,F,,B,, | (3B,,,F,,B,, (3B,,,F,,B,, (3B,,,F,,B,, | %88
 (3B,,,F,,B,, (3B,,,F,,B,, (3B,,,F,,B,, | (3B,,,=G,,^A,, (3B,,,G,,A,, (3B,,,G,,A,, | %90
 (3B,,,=G,,^A,, (3B,,,G,,A,, (3B,,,G,,A,, | (3B,,,F,,B,, (3B,,,F,,B,, (3B,,,F,,B,, | %92
 (3B,,,=G,,^A,, (3B,,,G,,A,, (3B,,,G,,A,, | (3B,,,=G,,^A,, (3B,,,G,,A,, (3B,,,G,,A,, | %94
 (3B,,,F,,B,, (3B,,,F,,B,, (3G,,,D,,G,, | (3C,,G,,C, (3C,,G,,C, (3C,,G,,C, | (C,,2 D,,2 E,,2) | %97
 (F,,,F,,F,,,F,,F,,,F,,) | (F,,,F,,F,,,F,,F,,,F,,) | (3^^F,,,D,,^^F,, (3F,,,D,,F,, (3F,,,D,,F,, | %100
 (3^^F,,,D,,^^F,, (3F,,,D,,F,, (3F,,,D,,F,, | (3^^F,,,D,,^^F,, (3F,,,D,,F,, (3F,,,D,,F,, | %102
 (3G,,,D,,G,, (3G,,,D,,G,, (3G,,,D,,G,, | (3^^F,,,D,,^^F,, (3F,,,D,,F,, (3F,,,D,,F,, | %104
 (3G,,,D,,G,, (3G,,,D,,G,, (3G,,,D,,G,, | (3G,,,D,,G,, (3G,,,E,,G,, (3G,,,D,,G,, | %106
 (3C,,G,,C, (3C,,G,,C, (3C,,G,,C, | C,,2 D,,2 E,,2 | F,,,F,,F,,,F,,F,,,F,, | %109
 F,,,F,,F,,,F,,F,,,F,, | =G,,,=G,,G,,,G,,G,,,G,, | =C,,3 C,,=D,,E,, | F,,,F,,F,,,F,,F,,,F,, | %113
 F,,C,F,,C,F,,C, | (3B,,,F,,B,, (3B,,,F,,B,, (3B,,,F,,B,, | %115
 (3B,,,F,,B,, (3B,,,F,,B,, (3B,,,F,,B,, | !fermata![B,,,F,,B,,]6 |] %117
V:4
 F,,6- | F,,6 | G,,6- | G,,6 | F,,6- | F,,6- | x6 | x6 | x6 | x6 | x6 | x6 | x6 | x6 | x6 | x6 | %16
 x6 | x6 | x6 | x6 | x6 | x6 | x6 | x6 | x6 | x6 | x6 | x6 | x6 | F,,6- | F,,6 | G,,6- | G,,6 | %33
 F,,6- | x6 | x6 | x6 | x6 | x6 | x6 | x6 | x6 | x6 | x6 | x6 | x6 | x6 | x6 | x6 | x6 | x6 | x6 | %52
 x6 | x6 | x6 | x6 | x6 | x6 | F,,6- | F,,6 | G,,6- | G,,4 x2 | F,,6- | x6 | x6 ||[K:B] x6 | x6 | %67
 x6 | x6 | x6 | x6 | x6 | x6 | x6 | x6 | x6 | x6 | x6 | x6 | x6 | x6 | x6 | x6 | x6 | x6 | x6 | %86
 x6 | x6 | x6 | x6 | x6 | x6 | x6 | x6 | x6 | x6 | x6 | x6 | x6 | x6 | x6 | x6 | x6 | x6 | x6 | %105
 x6 | x6 | x6 | x6 | x6 | x6 | x6 | x6 | x6 | x6 | x6 | x6 |] %117
V:5
 x6 | ([B,D]2 [^A,C]4) | x6 | ([B,D]2 [^A,C]4) | x6 | x6 | x6 | x6 | x6 | x6 | x6 | x6 | %12
[K:bass] x6 | x6 | x6 | x6 | x6 | x6 | x6 | x6 | x6 | x6 | x6 | x6 | [E,G,]6 | x6 | x6 | x6 | x6 | %29
[K:treble] x6 | ([B,D]2 [^A,C]4) | x6 | ([B,D]2 [^A,C]4) | x6 | x6 | x6 | x6 | x6 | x6 | x6 | x6 | %41
[K:bass] x6 | x6 | x6 | x6 | x6 | x6 | x6 | x6 | x6 | x6 | x6 | x6 | x6 | x6 | x6 | x6 | x6 | %58
[K:treble] x6 | ([B,D]2 [^A,C]4) | x6 | ([B,D]2 [^A,C]4) | x6 | x6 | x6 ||[K:B][K:bass] x6 | x6 | %67
 x6 | x6 | x6 | x6 | x6 | x6 | x6 | x6 | x6 | x6 | x6 | x6 | x6 | x6 | x6 | x6 | x6 | x6 | x6 | %86
 x6 | x6 | x6 | x6 |[K:treble] [E=GA]6 |[K:bass] x6 | x6 |[K:treble] [E=GA]6 |[K:bass] x6 | x6 | %96
 x6 | x6 | x6 | x6 | x6 | x6 | x6 | x6 | x6 | x6 | x6 | x6 | x6 | x6 | x6 | x6 | x6 | x6 | x6 | %115
 x6 | x6 |] %117

